packages/core/src/svg/icon-share.svg

<?xml version="1.0" encoding="UTF-8"?>
<svg xmlns="http://www.w3.org/2000/svg" width="100%" height="100%" viewBox="0 0 24 24">
  <path d="M17.7854267,14.5718468 C16.8756557,14.5718468 16.0551783,14.9502318 15.4703777,15.5569651 L9.3866954,12.5123201 C9.41377628,12.3454501 9.42841459,12.1749207 9.42841459,12 C9.42841459,11.8258112 9.41377628,11.6545499 9.3866954,11.486948 L15.4725735,8.44596243 C16.057374,9.05196389 16.8771195,9.42888509 17.7854267,9.42888509 C19.560322,9.42888509 21,7.98999756 21,6.21517443 C21,4.43888753 19.560322,3 17.7854267,3 C16.0105315,3 14.5701216,4.43888753 14.5701216,6.21517443 C14.5701216,6.38643572 14.5847599,6.55623323 14.6111089,6.72017565 L8.52157118,9.7640888 C7.93677063,9.16101488 7.11995283,8.78628934 6.21310942,8.78628934 C4.43894604,8.78628934 3,10.2251769 3,12 C3,13.775555 4.43894604,15.2144425 6.21310942,15.2144425 C7.11995283,15.2144425 7.93823446,14.8382532 8.52230309,14.2359112 L14.6103769,17.2834838 C14.5847599,17.4474262 14.5701216,17.6150281 14.5701216,17.7862893 C14.5701216,19.5603806 16.0105315,21 17.7854267,21 C19.560322,21 21,19.5603806 21,17.7862893 C21,16.0107343 19.560322,14.5718468 17.7854267,14.5718468 M17.7854267,4.92925104 C18.494653,4.92925104 19.0714024,5.50524518 19.0714024,6.21517443 C19.0714024,6.92363991 18.494653,7.50036594 17.7854267,7.50036594 C17.0762005,7.50036594 16.4994511,6.92363991 16.4994511,6.21517443 C16.4994511,5.50524518 17.0762005,4.92925104 17.7854267,4.92925104 M6.21310942,13.2859234 C5.50534705,13.2859234 4.92859757,12.7091974 4.92859757,12 C4.92859757,11.2915345 5.50534705,10.7140766 6.21310942,10.7140766 C6.92306754,10.7140766 7.49981702,11.2915345 7.49981702,12 C7.49981702,12.7091974 6.92306754,13.2859234 6.21310942,13.2859234 M17.7854267,19.070749 C17.0762005,19.070749 16.4994511,18.4940229 16.4994511,17.7862893 C16.4994511,17.077092 17.0762005,16.5003659 17.7854267,16.5003659 C18.494653,16.5003659 19.0714024,17.077092 19.0714024,17.7862893 C19.0714024,18.4940229 18.494653,19.070749 17.7854267,19.070749" />
</svg>

<?xml version="1.0" encoding="UTF-8"?><svg viewBox="0 0 24 24" xmlns="http://www.w3.org/2000/svg"><path d="m17.785 14.572c-0.90977 0-1.7302 0.37838-2.315 0.98512l-6.0837-3.0446c0.027081-0.16687 0.041719-0.3374 0.041719-0.51232 0-0.17419-0.014638-0.34545-0.041719-0.51305l6.0859-3.041c0.5848 0.606 1.4045 0.98292 2.3129 0.98292 1.7749 0 3.2146-1.4389 3.2146-3.2137 0-1.7763-1.4397-3.2152-3.2146-3.2152-1.7749 0-3.2153 1.4389-3.2153 3.2152 0 0.17126 0.014638 0.34106 0.040987 0.505l-6.0895 3.0439c-0.5848-0.60307-1.4016-0.9778-2.3085-0.9778-1.7742 0-3.2131 1.4389-3.2131 3.2137 0 1.7756 1.4389 3.2144 3.2131 3.2144 0.90684 0 1.7251-0.37619 2.3092-0.97853l6.0881 3.0476c-0.025617 0.16394-0.040255 0.33154-0.040255 0.50281 0 1.7741 1.4404 3.2137 3.2153 3.2137 1.7749 0 3.2146-1.4396 3.2146-3.2137 0-1.7756-1.4397-3.2144-3.2146-3.2144m0-9.6426c0.70923 0 1.286 0.57599 1.286 1.2859 0 0.70847-0.57675 1.2852-1.286 1.2852-0.70923 0-1.286-0.57673-1.286-1.2852 0-0.70993 0.57675-1.2859 1.286-1.2859m-11.572 8.3567c-0.70776 0-1.2845-0.57673-1.2845-1.2859 0-0.70847 0.57675-1.2859 1.2845-1.2859 0.70996 0 1.2867 0.57746 1.2867 1.2859 0 0.7092-0.57675 1.2859-1.2867 1.2859m11.572 5.7848c-0.70923 0-1.286-0.57673-1.286-1.2845 0-0.7092 0.57675-1.2859 1.286-1.2859 0.70923 0 1.286 0.57673 1.286 1.2859 0 0.70773-0.57675 1.2845-1.286 1.2845"/></svg>
